X:65
T: Xinshang cishan
N: C1563
O: China,Liaoning, Haicheng
S: III, 289]
R: Xiaodiao]
M: 2/4
L: 1/16
K: G
E2B2A2F2 | E2B,DE4 |
E2B2A2F2 | E2B,DE4 |
G2E2G4 | z2d2B2A2 | GABdABF2 | E2B,DE4 |
B2A2B2d2 | e2g2e2d2 | B2B2E2G2 | A4A4 |
e4e4 | e4e4 |
G2E4d2 | B3AG2E2 | z2B2A2F2 | A2E4D2 | E8 |
e2Bfe4 | B2f2e4 | B2B2E2G2 | A8 |
e4e4 | e4e4 |
G2E4d2 | B3AG2E2 | z2B2A2F2 | E2E4D2 | E8

@@@ Tune index: 6620
